X:1
T:Armstrong (Chadwick), 77.77.75
T:George Whitfield Chadwick, 1888
T:Armstrong (Chadwick), 77.77.75
T:Public Domain
C:George Whitfield Chadwick, 1888
Z:Public Domain
%%score ( 1 2 ) ( 3 4 )
L:1/8
M:3/4
K:G
V:1 treble 
V:2 treble 
V:3 bass 
V:4 bass 
V:1
 [GB]4 [GB]2 | (B2 A2) E2 | (E2 D2) [FA]2 | z4 D2 | [DB]4 [EB]2 | [FA]2 [Ad]2 [GB]2 | [FA]4 [EG]2 | %7
 [DF]6 | [DF]2 [FB]2 [^Ed]2 | [Fd]4 [E^c]2 | [DB]6- | [DB]6 | (B2 A2) [^E^G]2 | [FA]4 [FB]2 | %14
 (G3 F) [^CE]2 | D6 | [DG]2 [FA]2 [GB]2 | [=Fe]4 [Fd]2 | [=Fd]2 [Ec]2 [DB]2 | A4 E2 | %20
 [DG]2 [GB]2 [Gd]2 | [FB]4 [FA]2 | [DG]6 |] x6 |] %24
V:2
 x6 | E4 x2 | F4 x2 | G6 | x6 | x6 | x6 | x6 | x6 | x6 | x6 | x6 | F4 x2 | x6 | D4 x2 | D6 | x6 | %17
 x6 | x6 | ^C6 | x6 | x6 | x6 |] x6 |] %24
V:3
 [G,,B,]2 [A,,C]2 [B,,D]2 | [C,E]4 [A,C]2 | [D,C]4 [D,C]2 | [G,B,]6 | [G,B,]4 [G,^C]2 | %5
 [F,C]4 [G,D]2 | (D2 B,2) x2 | [A,^C]2 x4 | [D,A,]6 | (B,2 D2) [G,B,]2 | [F,B,]4 [F,^A,]2 | %11
 [B,,B,]6- | [B,,B,]6 | [D,C]4 [D,B,]2 | [D,C]4 [D,D]2 | [G,B,]4 [G,^A,]2 | [G,B,]6 | %17
 (B,2 C2) [G,D]2 | [G,B,]4 [G,B,]2 | [C,G,]4 [D,G,]2 | [E,G,]4 A,2 | (B,2 D2) [D,B,]2 | %22
 [D,D]4 [D,C]2 |] [G,B,]6 |] %24
V:4
 x6 | x6 | x6 | x6 | x6 | x6 | A,4 x2 | x6 | x6 | B,4 x2 | x6 | x6 | x6 | x6 | x6 | x6 | x6 | %17
 G,4 x2 | x6 | x6 | x6 | D,4 x2 | x6 |] x6 |] %24

